X:1149
T:Port Lenox.
M:C|
L:1/8
Q:1/4=104
I: :| || :| ||
N:triplets not marked explicitly
Z:Jack Campin * www.campin.me.uk * 2009
K:D
d8|e8|\
{de}f2 fa  e2 e>f|d2 d>e c2 c>a     |TB4  A2 d>e|
    c2 B>A A2 f>e|d2Tc>B B2 d/c/B/c/| d4 Tc4{Bc}|[1 d8:|\
                                                 [2 d6||
fe|d2D2 F2A2|   d2 d/c/d/e/ d2c>d|\
   e2E2 G2B2|   e2 e/d/e/f/ e2d>e|
   fedc def2|{f}e2 a/g/f/g/ a2f>g|\
(3aba (3faf (3efe (3ded| (3cac TB2     A2 A/B/c|
  d2    A>G   F2    c>d|   e2   e>E    F2 A2   |\
  de````fB    cd````eA |[1 B2  Tc2 {Bc}d2     :|\
                        [2 B2  Tc2 {Bc}d4     |]
<end>
<start>
